X:75 
T:Rakes of Clonmel, The  
B:OFPC1.35
F:fileID ofpc1/75rclon
Y:"Irish"
N:I added a second ending.
Q:160
M:6/8
L:1/8
R:jig
K:Am
E|ABA G^FG|EAA A2B|cBc Adc|BGG G2^f|
"5"gfe dBG|GAG Bcd|efe Ace|dBG A2 :|
e|"9"a2g aga|ecB A2f|gag gfe|dBA GAB|
"13"c2c E2E|d2d E2E|efe Ace|dBG A2 :|
c/d/|"17"ecc A2c|ecc A2B/c/|dBB GBB|dBB GAB|
"21"c2c E2E|d2d E2E|efe Ace|1dBG A2 :|\
[2dBGA3-|A6|]

